PR6/img/copy.svg

<svg fill="none" height="35" viewBox="0 0 35 35" width="35" xmlns="http://www.w3.org/2000/svg"><path d="m17.8506.897461c-9.36299 0-16.953139 7.590149-16.953139 16.953139 0 9.363 7.590149 16.9531 16.953139 16.9531 9.363 0 16.9531-7.5901 16.9531-16.9531 0-9.36299-7.5901-16.953139-16.9531-16.953139zm8.0072 23.703839c-.1088.1276-2.7191 3.1261-7.5094 3.1261-5.7894 0-9.87679-4.3244-9.87679-9.9508 0-5.5579 4.23859-9.80285 9.82749-9.80285 4.5771 0 6.9703 2.55085 7.0699 2.65945.1227.1338.1976.3045.2129.4854s-.0298.3617-.1283.5142l-1.5299 2.369c-.2768.4284-.8732.5025-1.2465.1569-.0159-.0146-1.8135-1.6324-4.23-1.6324-3.1525 0-5.0529 2.2951-5.0529 5.2009 0 2.7072 1.7441 5.4477 5.0775 5.4477 2.6453 0 4.4625-1.9372 4.4806-1.9568.3508-.3804.961-.344 1.2652.072l1.678 2.2949c.1089.149.1644.3303.1575.5147-.0068.1844-.0756.3611-.1953.5016z" fill="#fff"/></svg>

<svg width="35" height="35" viewBox="0 0 35 35" fill="none" xmlns="http://www.w3.org/2000/svg">
<path d="M17.8506 0.897461C8.48761 0.897461 0.897461 8.48761 0.897461 17.8506C0.897461 27.2136 8.48761 34.8037 17.8506 34.8037C27.2136 34.8037 34.8037 27.2136 34.8037 17.8506C34.8037 8.48761 27.2136 0.897461 17.8506 0.897461ZM25.8578 24.6013C25.749 24.7289 23.1387 27.7274 18.3484 27.7274C12.559 27.7274 8.47161 23.403 8.47161 17.7766C8.47161 12.2187 12.7102 7.97375 18.2991 7.97375C22.8762 7.97375 25.2694 10.5246 25.369 10.6332C25.4917 10.767 25.5666 10.9377 25.5819 11.1186C25.5972 11.2995 25.5521 11.4803 25.4536 11.6328L23.9237 14.0018C23.6469 14.4302 23.0505 14.5043 22.6772 14.1587C22.6613 14.1441 20.8637 12.5263 18.4472 12.5263C15.2947 12.5263 13.3943 14.8214 13.3943 17.7272C13.3943 20.4344 15.1384 23.1749 18.4718 23.1749C21.1171 23.1749 22.9343 21.2377 22.9524 21.2181C23.3032 20.8377 23.9134 20.8741 24.2176 21.2901L25.8956 23.585C26.0045 23.734 26.06 23.9153 26.0531 24.0997C26.0463 24.2841 25.9775 24.4608 25.8578 24.6013Z" fill="white"/>
</svg>
